X:1
T:Title
%%score { ( 1 4 ) | ( 2 3 ) }
L:1/8
M:6/4
K:D
V:1 treble nm="Grand Piano"
V:4 treble 
V:2 bass 
V:3 bass 
V:1
 z6 z4 DE | F2 =F2 ^F2 D2 F2 [EG]2 | [FA]6 F4 FF | [EG]2 [^DF]2 [EG]2 [Gc]2 [GB]2 [EG]2 | %4
 F6- F4 DE | F2 =F2 ^F2 D2 F2 [EG]2 | [FA]6 F4 FF | E2 E2 F2 ^G2 A2 B2 | c6- [Gc]6 |[M:1/4] Bc | %10
[M:6/4] [Fd]2 [Fc]2 [DFB]2 [DFA]2 [DF]2 [DGB]2 |[M:5/4] [EG]2- [EG]2- [EG]6 |[M:1/4] GG | %13
[M:6/4] c2 B2 A2 G2 A2 B2 | F12 |[M:5/4] [FA]2 [=F^G]2 [^FA]2 [DF]4 |[M:1/4] [DF][EG] | %17
[M:7/4] [FA]2 F2 D2 d6 D[DE] |[M:6/4] [DF]2 [DF]2 [DFA]2 [A,DF]2 D2[K:bass] [G,CE]2 | %19
[M:5/4] D2- D2- D6 |] %20
V:2
 z6 z4 [D,F,][D,G,D] | [D,A,D]2 [D,^G,D]2 [D,A,D]2 [D,F,A,]2 [D,A,D]2 [D,D]2 | %2
 [D,D]6 [D,A,D]4 [D,A,D][D,A,D] | [A,,A,]2 [A,,A,]2 [A,,A,]2 [A,,A,]2 [B,,A,]2 [C,A,]2 | %4
 [D,A,D]6- [D,A,D]4 [D,F,][D,G,D] | [D,A,D]2 [D,^G,D]2 [D,A,D]2 [D,F,]2 [D,A,D]2 [D,D]2 | %6
 [D,D]6 [D,A,D]4 [D,A,D][D,A,D] | z6 .B,6 | [A,,A,]6 A,6 |[M:1/4][K:treble] [A,G][A,G] | %10
[M:6/4][K:bass] [D,A,]2 [D,A,]2 D,2 z2 A,2 D,2 |[M:5/4] E,4 E,2 A,,4 | %12
[M:1/4][K:treble] [A,CE][A,CE] |[M:6/4] [A,EG]2 [A,DG]2 [A,CG]2 [CE]2 [DF]2[K:bass] [A,C]2 | %14
 [D,A,D]4 [A,,A,]2 [D,A,]4 [D,A,D][D,A,] |[M:5/4] [D,D]2 [D,D]2 [D,D]2 [D,A,]4 | %16
[M:1/4] [D,A,][D,A,] |[M:7/4] [D,=C]2 [D,CD]2 [F,C]2 [G,B,D]6 [B,,^G,][B,,G,] | %18
[M:6/4] [A,,A,]2 [A,,A,]2 A,,2 z2 F,2 A,,2 |[M:5/4] z4 G,2 F,4 |] %20
V:3
 x12 | x12 | x12 | x12 | x12 | x12 | x12 | [E,^G,D]2 [E,G,D]2 [E,A,D]2 [E,D]2- [E,A,D]2 [E,G,D]2 | %8
 x12 |[M:1/4][K:treble] x2 |[M:6/4][K:bass] z6 .D,6 |[M:5/4] x10 |[M:1/4][K:treble] x2 | %13
[M:6/4] z6 .A,6[K:bass] | x12 |[M:5/4] x10 |[M:1/4] x2 |[M:7/4] x14 |[M:6/4] z6 .A,,6 | %19
[M:5/4] D,2- D,2- D,6 |] %20
V:4
 x12 | x12 | x12 | x12 | x12 | x12 | x12 | x12 | E6 z6 |[M:1/4] x2 |[M:6/4] x12 |[M:5/4] C4 C2 C4 | %12
[M:1/4] x2 |[M:6/4] x12 | z4 D2 D4 F[EG] |[M:5/4] x10 |[M:1/4] x2 |[M:7/4] x14 | %18
[M:6/4] x10[K:bass] x2 |[M:5/4] F,4 B,2 A,4 |] %20

